newicons/geph.svg

<?xml version="1.0" encoding="UTF-8"?><svg id="a" xmlns="http://www.w3.org/2000/svg" viewBox="0 0 48 48"><defs><style>.b{fill:none;stroke:#fff;stroke-linecap:round;stroke-linejoin:round;}</style></defs><path class="b" d="M34.35,12.85c0,5.7161-4.6339,10.35-10.35,10.35s-10.35-4.6339-10.35-10.35h0c0-5.7161,4.6339-10.35,10.35-10.35h0c5.7161,0,10.35,4.6339,10.35,10.35M39.869,18.369c-.0006,8.7644-7.1056,15.869-15.87,15.869-8.764-.0011-15.868-7.106-15.868-15.87.0011-8.7636,7.1054-15.8674,15.869-15.868,8.764.0006,15.8684,7.105,15.869,15.869M45.499,23.999c.0006,11.8741-9.6249,21.5004-21.499,21.501h0c-11.8741,0-21.5-9.6259-21.5-21.5S12.1259,2.5,24,2.5s21.5,9.6259,21.5,21.5"/></svg>

<svg xmlns="http://www.w3.org/2000/svg" xml:space="preserve" width="48" height="48"><path fill="none" stroke="#fff" stroke-linecap="round" stroke-linejoin="round" d="M34.35 12.85A10.35 10.35 0 0 1 24 23.2a10.35 10.35 0 0 1-10.35-10.35A10.35 10.35 0 0 1 24 2.5a10.35 10.35 0 0 1 10.35 10.35m5.519 5.519a15.87 15.87 0 0 1-15.87 15.869 15.87 15.87 0 0 1-15.868-15.87A15.87 15.87 0 0 1 24 2.5a15.87 15.87 0 0 1 15.869 15.869m5.63 5.63A21.5 21.5 0 0 1 24 45.5 21.5 21.5 0 0 1 2.5 24 21.5 21.5 0 0 1 24 2.5 21.5 21.5 0 0 1 45.5 24"/></svg>
